Yaru++/status/scalable/dialog-information.svg

<svg height="256" viewBox="0 0 67.73 67.73" width="256" xmlns="http://www.w3.org/2000/svg" xmlns:xlink="http://www.w3.org/1999/xlink"><filter id="a" color-interpolation-filters="sRGB" height="1.055826" width="1.3424" x="-.1712" y="-.027913"><feGaussianBlur stdDeviation="1.67241"/></filter><linearGradient id="b" gradientUnits="userSpaceOnUse" x1="21.10001224" x2="46.498762" y1="3.24045864" y2="62.50420808"><stop offset="0" stop-color="#1a7fd4"/><stop offset="1" stop-color="#37a6e6"/></linearGradient><filter id="c" color-interpolation-filters="sRGB" height="1.024" width="1.024" x="-.012" y="-.012"><feGaussianBlur stdDeviation="1.12"/></filter><filter id="d" color-interpolation-filters="sRGB" height="1.096" width="1.096" x="-.048" y="-.048"><feGaussianBlur stdDeviation="4.48"/></filter><circle cx="122.752" cy="122.752" filter="url(#d)" opacity=".1" r="112" transform="matrix(.26457031 0 0 .26457031 1.322852 1.454082)"/><circle cx="122.752" cy="120.75198" filter="url(#c)" opacity=".1" r="112" transform="matrix(.26457031 0 0 .26457031 1.322852 1.454082)"/><circle cx="33.799389" cy="32.87233" opacity=".1" r="30.161015"/><circle cx="33.799389" cy="32.87233" fill="url(#b)" r="29.631874"/><path d="m4.1675119 35.437583a29.773288 29.773275 0 0 0 29.6259301 27.066625 29.773288 29.773275 0 0 0 29.63782-27.066625z" fill="#fff" opacity=".1"/><text style="font-size:195.375;font-family:sans-serif;letter-spacing:0;word-spacing:0;opacity:.2;filter:url(#a)" transform="matrix(.26457031 0 0 .26457031 1.322852 1.454082)" x="98.130249" y="192.548"><tspan font-family="Ubuntu" stroke-width=".204734" x="98.130249" y="192.548">i</tspan></text><text style="font-size:51.690426;font-family:sans-serif;letter-spacing:0;word-spacing:0;fill:#fff;stroke-width:.26457" x="27.285204" y="51.867424"><tspan fill="#fff" font-family="Ubuntu" stroke-width=".054167" x="27.285204" y="51.867424">i</tspan></text><path d="m33.799387 3.2404592a29.631875 29.631875 0 0 0 -29.6318751 29.6318738 29.631875 29.631875 0 0 0 .010853.309526 29.631875 29.631875 0 0 1 29.6210221-29.4122592 29.631875 29.631875 0 0 1 29.621022 29.3223482 29.631875 29.631875 0 0 0 .010848-.219615 29.631875 29.631875 0 0 0 -29.631875-29.6318738z" fill="#fff" opacity=".3"/><path d="m33.799387 62.504208a29.631875 29.631875 0 0 1 -29.6318751-29.631875 29.631875 29.631875 0 0 1 .010853-.309526 29.631875 29.631875 0 0 0 29.6210221 29.41226 29.631875 29.631875 0 0 0 29.621022-29.322348 29.631875 29.631875 0 0 1 .01085.219614 29.631875 29.631875 0 0 1 -29.631875 29.631875z" opacity=".2"/></svg>

<?xml version="1.0" encoding="UTF-8" standalone="no"?>
<svg
   xmlns:dc="http://purl.org/dc/elements/1.1/"
   xmlns:cc="http://creativecommons.org/ns#"
   xmlns:rdf="http://www.w3.org/1999/02/22-rdf-syntax-ns#"
   xmlns:svg="http://www.w3.org/2000/svg"
   xmlns="http://www.w3.org/2000/svg"
   xmlns:xlink="http://www.w3.org/1999/xlink"
   xmlns:sodipodi="http://sodipodi.sourceforge.net/DTD/sodipodi-0.dtd"
   xmlns:inkscape="http://www.inkscape.org/namespaces/inkscape"
   width="256"
   height="256"
   version="1.1"
   viewBox="0 0 67.73 67.73"
   id="svg50"
   sodipodi:docname="1.svg"
   inkscape:version="0.92.4 (5da689c313, 2019-01-14)">
  <metadata
     id="metadata54">
    <rdf:RDF>
      <cc:Work
         rdf:about="">
        <dc:format>image/svg+xml</dc:format>
        <dc:type
           rdf:resource="http://purl.org/dc/dcmitype/StillImage" />
        <dc:title></dc:title>
      </cc:Work>
    </rdf:RDF>
  </metadata>
  <sodipodi:namedview
     pagecolor="#ffffff"
     bordercolor="#666666"
     borderopacity="1"
     objecttolerance="10"
     gridtolerance="10"
     guidetolerance="10"
     inkscape:pageopacity="0"
     inkscape:pageshadow="2"
     inkscape:window-width="1920"
     inkscape:window-height="1016"
     id="namedview52"
     showgrid="false"
     inkscape:zoom="0.921875"
     inkscape:cx="128"
     inkscape:cy="128"
     inkscape:window-x="0"
     inkscape:window-y="27"
     inkscape:window-maximized="1"
     inkscape:current-layer="svg50" />
  <defs
     id="defs38">
    <linearGradient
       id="linearGradient1108"
       x1="296"
       x2="296"
       y1="-212"
       y2="236"
       gradientUnits="userSpaceOnUse">
      <stop
         style="stop-color:#ffffff"
         id="stop65"
         offset="0" />
      <stop
         style="stop-color:#ffffff;stop-opacity:.09803922"
         id="stop67"
         offset=".125" />
      <stop
         style="stop-color:#000000;stop-opacity:.09803922"
         id="stop69"
         offset=".925" />
      <stop
         style="stop-color:#000000;stop-opacity:.49803922"
         id="stop71"
         offset="1" />
    </linearGradient>
    <clipPath
       id="clipPath1082-3-3">
      <path
         style="fill:#8c59d9"
         d="M 361.9375,-212 C 507.2348,-212 528,-191.28677 528,-46.125 V 70.125 C 528,215.28618 507.2348,236 361.9375,236 H 214.0625 C 68.7652,236 48,215.28618 48,70.125 V -46.125 C 48,-191.28677 68.7652,-212 214.0625,-212 Z"
         id="path7" />
    </clipPath>
    <filter
       id="filter929"
       width="1.119"
       height="1.121"
       x="-.06"
       y="-.06"
       style="color-interpolation-filters:sRGB">
      <feGaussianBlur
         id="feGaussianBlur77"
         stdDeviation="3.909" />
    </filter>
    <linearGradient
       id="linearGradient878"
       x1="32"
       x2="272"
       y1="156"
       y2="156"
       gradientTransform="matrix(0 .26458333 -.26458333 0 74.498196 223.03096)"
       gradientUnits="userSpaceOnUse">
      <stop
         style="stop-color:#2f9b3f"
         id="stop80"
         offset="0" />
      <stop
         style="stop-color:#3eb34f"
         id="stop82"
         offset="1" />
    </linearGradient>
    <filter
       id="filter938"
       width="1.046"
       height="1.05"
       x="-.02"
       y="-.03"
       style="color-interpolation-filters:sRGB">
      <feGaussianBlur
         id="feGaussianBlur85"
         stdDeviation="2.32" />
    </filter>
    <filter
       id="filter4569"
       width="1.023"
       height="1.025"
       x="-.01"
       y="-.01"
       style="color-interpolation-filters:sRGB">
      <feGaussianBlur
         id="feGaussianBlur88"
         stdDeviation="1.16" />
    </filter>
    <filter
       id="filter913"
       width="1.046"
       height="1.05"
       x="-.02"
       y="-.03"
       style="color-interpolation-filters:sRGB">
      <feGaussianBlur
         id="feGaussianBlur17"
         stdDeviation="2.32" />
    </filter>
    <filter
       id="filter4569-3"
       width="1.023"
       height="1.025"
       x="-.01"
       y="-.01"
       style="color-interpolation-filters:sRGB">
      <feGaussianBlur
         id="feGaussianBlur14"
         stdDeviation="1.16" />
    </filter>
    <clipPath
       id="clipPath1082-3-2">
      <path
         style="fill:#8c59d9"
         d="M 361.9375,-212 C 507.2348,-212 528,-191.28677 528,-46.125 V 70.125 C 528,215.28618 507.2348,236 361.9375,236 H 214.0625 C 68.7652,236 48,215.28618 48,70.125 V -46.125 C 48,-191.28677 68.7652,-212 214.0625,-212 Z"
         id="path23" />
    </clipPath>
    <filter
       id="filter1013"
       width="1.104"
       height="1.089"
       x="-.05"
       y="-.04"
       style="color-interpolation-filters:sRGB">
      <feGaussianBlur
         id="feGaussianBlur20"
         stdDeviation=".745" />
    </filter>
    <linearGradient
       id="linearGradient4317"
       x1="526.097"
       x2="397.147"
       y1="51.276"
       y2="51.276"
       gradientTransform="matrix(0.17977937,0,0,0.15709877,32.450636,231.55237)"
       gradientUnits="userSpaceOnUse"
       spreadMethod="reflect">
      <stop
         style="stop-color:#b4b4b4"
         id="stop23"
         offset="0" />
      <stop
         style="stop-color:#ffffff"
         id="stop25"
         offset="1" />
    </linearGradient>
    <linearGradient
       id="linearGradient4292"
       x1="116"
       x2="116"
       y1="15.25"
       y2="47.25"
       gradientTransform="matrix(1.0079364,0,0,1.0079364,4.0637822,227.76452)"
       gradientUnits="userSpaceOnUse">
      <stop
         style="stop-color:#bc1938"
         id="stop28"
         offset="0" />
      <stop
         style="stop-color:#da1636"
         id="stop30"
         offset="1" />
    </linearGradient>
    <filter
       style="color-interpolation-filters:sRGB"
       id="filter945"
       width="1.048"
       height="1.048"
       x="-.02"
       y="-.02">
      <feGaussianBlur
         id="feGaussianBlur947"
         stdDeviation="2.24" />
    </filter>
    <filter
       style="color-interpolation-filters:sRGB"
       id="filter951"
       width="1.12"
       height="1.12"
       x="-.06"
       y="-.06">
      <feGaussianBlur
         id="feGaussianBlur953"
         stdDeviation="5.6" />
    </filter>
    <filter
       inkscape:collect="always"
       style="color-interpolation-filters:sRGB"
       id="filter8165"
       x="-0.17120001"
       width="1.3424"
       y="-0.027913043"
       height="1.0558261">
      <feGaussianBlur
         inkscape:collect="always"
         stdDeviation="1.67241"
         id="feGaussianBlur8167" />
    </filter>
    <linearGradient
       inkscape:collect="always"
       xlink:href="#linearGradient876"
       id="linearGradient11065"
       x1="104"
       y1="44"
       x2="200"
       y2="268"
       gradientUnits="userSpaceOnUse"
       gradientTransform="matrix(0.26457031,0,0,0.26457031,-6.4153001,-8.400635)" />
    <linearGradient
       inkscape:collect="always"
       id="linearGradient876">
      <stop
         style="stop-color:#1a7fd4;stop-opacity:1;"
         offset="0"
         id="stop872" />
      <stop
         style="stop-color:#37a6e6;stop-opacity:1"
         offset="1"
         id="stop874" />
    </linearGradient>
    <filter
       inkscape:collect="always"
       style="color-interpolation-filters:sRGB"
       id="filter11191"
       x="-0.012"
       width="1.024"
       y="-0.012"
       height="1.024">
      <feGaussianBlur
         inkscape:collect="always"
         stdDeviation="1.12"
         id="feGaussianBlur11193" />
    </filter>
    <filter
       inkscape:collect="always"
       style="color-interpolation-filters:sRGB"
       id="filter11210"
       x="-0.048"
       width="1.096"
       y="-0.048"
       height="1.096">
      <feGaussianBlur
         inkscape:collect="always"
         stdDeviation="4.48"
         id="feGaussianBlur11212" />
    </filter>
  </defs>
  <circle
     style="display:inline;opacity:0.1;fill:#000000;fill-opacity:1;stroke:none;stroke-width:1;stroke-linecap:round;stroke-linejoin:round;stroke-miterlimit:4;stroke-dasharray:none;stroke-opacity:1;filter:url(#filter11210);enable-background:new"
     id="path11042-0"
     r="112"
     cy="122.752"
     cx="122.752"
     transform="matrix(0.26457031,0,0,0.26457031,1.3228519,1.454082)" />
  <circle
     style="display:inline;opacity:0.1;fill:#000000;fill-opacity:1;stroke:none;stroke-width:1;stroke-linecap:round;stroke-linejoin:round;stroke-miterlimit:4;stroke-dasharray:none;stroke-opacity:1;filter:url(#filter11191);enable-background:new"
     id="path11042-6"
     r="112"
     cy="120.75198"
     cx="122.752"
     transform="matrix(0.26457031,0,0,0.26457031,1.3228519,1.454082)" />
  <circle
     style="display:inline;opacity:0.1;fill:#000000;fill-opacity:1;stroke:none;stroke-width:0.2645703;stroke-linecap:round;stroke-linejoin:round;stroke-miterlimit:4;stroke-dasharray:none;stroke-opacity:1;enable-background:new"
     id="path11042-7"
     cy="32.87233"
     cx="33.799389"
     r="30.161015" />
  <circle
     style="display:inline;opacity:1;fill:url(#linearGradient11065);fill-opacity:1;stroke:none;stroke-width:0.26457033;stroke-linecap:round;stroke-linejoin:round;stroke-miterlimit:4;stroke-dasharray:none;stroke-opacity:1;enable-background:new"
     id="path11042"
     r="29.631874"
     cy="32.87233"
     cx="33.799389" />
  <path
     style="display:inline;opacity:0.1;fill:#ffffff;fill-opacity:1;stroke:none;stroke-width:2.82208323;stroke-linecap:round;stroke-linejoin:round;stroke-miterlimit:4;stroke-dasharray:none;stroke-opacity:1;enable-background:new"
     d="M 4.1675119,35.437583 A 29.773288,29.773275 0 0 0 33.793442,62.504208 29.773288,29.773275 0 0 0 63.431262,35.437583 Z"
     id="rect12119"
     inkscape:connector-curvature="0" />
  <text
     xml:space="preserve"
     style="font-style:normal;font-weight:normal;font-size:195.375px;line-height:1.25;font-family:sans-serif;letter-spacing:0px;word-spacing:0px;display:inline;opacity:0.2;fill:#000000;fill-opacity:1;stroke:none;stroke-width:1;filter:url(#filter8165);enable-background:new"
     x="98.130249"
     y="192.548"
     id="text6287-2"
     transform="matrix(0.26457031,0,0,0.26457031,1.3228519,1.454082)"><tspan
       sodipodi:role="line"
       id="tspan6285-7"
       x="98.130249"
       y="192.548"
       style="font-style:normal;font-variant:normal;font-weight:normal;font-stretch:normal;font-family:Ubuntu;-inkscape-font-specification:Ubuntu;fill:#000000;fill-opacity:1;stroke-width:0.20473449">i</tspan></text>
  <text
     xml:space="preserve"
     style="font-style:normal;font-weight:normal;font-size:51.69042587px;line-height:1.25;font-family:sans-serif;letter-spacing:0px;word-spacing:0px;display:inline;fill:#ffffff;fill-opacity:1;stroke:none;stroke-width:0.26457033;enable-background:new"
     x="27.285204"
     y="51.867424"
     id="text6287"><tspan
       sodipodi:role="line"
       id="tspan6285"
       x="27.285204"
       y="51.867424"
       style="font-style:normal;font-variant:normal;font-weight:normal;font-stretch:normal;font-family:Ubuntu;-inkscape-font-specification:Ubuntu;fill:#ffffff;fill-opacity:1;stroke-width:0.05416667">i</tspan></text>
  <path
     style="display:inline;opacity:0.3;fill:#ffffff;fill-opacity:1;stroke:none;stroke-width:0.26457033;stroke-linecap:round;stroke-linejoin:round;stroke-miterlimit:4;stroke-dasharray:none;stroke-opacity:1;enable-background:new"
     d="M 33.799387,3.2404592 A 29.631875,29.631875 0 0 0 4.1675119,32.872333 29.631875,29.631875 0 0 0 4.1783649,33.181859 29.631875,29.631875 0 0 1 33.799387,3.7695998 29.631875,29.631875 0 0 1 63.420409,33.091948 29.631875,29.631875 0 0 0 63.431257,32.872333 29.631875,29.631875 0 0 0 33.799382,3.2404592 Z"
     id="path11042-1"
     inkscape:connector-curvature="0" />
  <path
     inkscape:connector-curvature="0"
     style="display:inline;opacity:0.2;fill:#000000;fill-opacity:1;stroke:none;stroke-width:0.26457033;stroke-linecap:round;stroke-linejoin:round;stroke-miterlimit:4;stroke-dasharray:none;stroke-opacity:1;enable-background:new"
     d="M 33.799387,62.504208 A 29.631875,29.631875 0 0 1 4.1675119,32.872333 a 29.631875,29.631875 0 0 1 0.010853,-0.309526 29.631875,29.631875 0 0 0 29.6210221,29.41226 29.631875,29.631875 0 0 0 29.621022,-29.322348 29.631875,29.631875 0 0 1 0.01085,0.219614 29.631875,29.631875 0 0 1 -29.631875,29.631875 z"
     id="path11042-1-7" />
</svg>
